X:322
T:Tommy Peoples' 1
R:Reel
O:Ireland
S:My arrangement from various sources
Z:Transcription, arrangement, chords:Mike Long
M:C|
L:1/8
K:G
"G"G2BG cABG|"D"A~D3 FGAF|"G"G2BG "C"cABG|[1 "D"Addc AGFA:|[2 "D"Addc "G"AGG2|]
|:"G"g2dg egdg|"G"g2bg "D"fgaf|"G"g2dg egdg|[1 "C"cBAd "G"BGG2:|[2 "C"cBAB "D"AGFA|]
